src/assets/images/icons/copy.svg

<?xml version="1.0" encoding="utf-8"?><!-- Uploaded to: SVG Repo, www.svgrepo.com, Generator: SVG Repo Mixer Tools -->
<svg width="800px" height="800px" viewBox="0 0 24 24" fill="none" xmlns="http://www.w3.org/2000/svg">
<path d="M16 12.9V17.1C16 20.6 14.6 22 11.1 22H6.9C3.4 22 2 20.6 2 17.1V12.9C2 9.4 3.4 8 6.9 8H11.1C14.6 8 16 9.4 16 12.9Z" fill="#292D32"/>
<path d="M17.0998 2H12.8998C9.81668 2 8.37074 3.09409 8.06951 5.73901C8.00649 6.29235 8.46476 6.75 9.02167 6.75H11.0998C15.2998 6.75 17.2498 8.7 17.2498 12.9V14.9781C17.2498 15.535 17.7074 15.9933 18.2608 15.9303C20.9057 15.629 21.9998 14.1831 21.9998 11.1V6.9C21.9998 3.4 20.5998 2 17.0998 2Z" fill="#292D32"/>
</svg>

<svg xmlns="http://www.w3.org/2000/svg" width="800" height="800" fill="none" viewBox="0 0 24 24"><path fill="#292D32" d="M16 12.9v4.2c0 3.5-1.4 4.9-4.9 4.9H6.9C3.4 22 2 20.6 2 17.1v-4.2C2 9.4 3.4 8 6.9 8h4.2c3.5 0 4.9 1.4 4.9 4.9Z"/><path fill="#292D32" d="M17.1 2h-4.2C9.817 2 8.37 3.094 8.07 5.739c-.064.553.395 1.011.952 1.011H11.1c4.2 0 6.15 1.95 6.15 6.15v2.078c0 .557.457 1.015 1.01.952C20.907 15.63 22 14.183 22 11.1V6.9C22 3.4 20.6 2 17.1 2Z"/></svg>
